X: 1
T: Polska efter Skrap Ollas
T: Skrap Ollas polska
T: River jag s\"onder i kras
R: sl\"angpolska
H: efter Karl Fahlstr\"om "Glysen", som bodde i Karlskoga-Grythyttans bergslag.
H: Nedtecknad i V\"astg\"otetorp, Loka 1910. D-bas. Jfr #188.
A: V\"astmanland
D: Anders Norudde: Kan sj\"alv! (spelas i A p{\aa} skivan)
D: lydia & Andrea: Fika
Z: id:hn-sp-215
M: 3/4
L: 1/16
K: D
|:\
"D"f3d A2A2 "A7"G2G2 | "D"FDEF "G"GFGB "A7"A2A2 |\
"D"f3d A2A2 "A7"G2G2 | "D"FDEF "G"GFGB "D"B2A2 |\
"G"B3A B2c2 d2B2 | "D"A2AG F2G2 A4 |
"G"B2BA B2c2 d2B2 | "D"ABAG F2G2 A4 |\
"G"B2B2 g2f2 "A7"e2d2 | "/b"c2Bc "/c#"e4 "D"Hd4 :|\
|:\
"D"A2A2 "A7"GFEG "D"F2F2 | "D"F2F2 "(A)"FDEF "D"D2F2 |
"D"A2A2 "A7"GFEG "D"F2D2 | "D"F2F2 EDEF D4 |\
"G"B2B2 g2f2 "A7"e2d2 | "/b"c2Bc "/c#"e4 "D"d4 :| [K:=f=c][K:Dm] \
|:\
"Dm"A2a2 a2ga "A"a2e2 | e2fg "Dm"f2ef f2d2 |
"Dm"d2d^c d2e2 e2f2 | "A"f2ef "/b"d2ed "/c#"^c2A2 |\
"Dm"A2a2 a2ga "A"a2e2 | e2fg "Dm"f2ef f2d2 |\
"Dm"d2d^c d2e2 "A"f2e2 | "/b"d2^cd "/c#"e4 "Dm"d4 :|

%%sep 1 1 500

